X:166
T:Ravelled Hank of Yarn (reel), The  
B:CRE1.102 (Ceirtlin Snaithe in Aimhreidh)
F:file ID: cre.1/166rav_hank
S:Willie Clancy
M:C
L:1/8
Q:180
R:reel
K:G
dc|:B3d A3B|GBB2 GBB2|dAA2 d2 (3efg|fdcA BGG2|
B3d A2AB|GBB2 GBB2|dAA2 d2eg|fdcA BGG2:|
dGG2 dGBd|g3a (3bag ag|dGG2 d2eg|fdcA AGG2|
dGG2 dG (3B^cd|g2g2 (3bag af|g3a bgag|fdcA AGG2:|

%%%

